X:1
T:The Noonday Feast
M:6/8
L:1/8
R:jig
F:Catskills+Tunes.txt
K:Ador
D:Jesse Smith (Tue PM)
eAA BAG | EAA ABd | eAA B2A | GEF GBd |\
eAA BAG | EAA AGE | GAB dge |1 dBA Agf :|2 dBA ABd ||
eaa g2e | dBA GBd | eaa g2e | dBd ~g3 |\
aba gag | dBG AGE | GAB dge |1 dBA Agf :|2 dBA ABd ||
